img/ideal_lens.svg

<svg version="1.1" xmlns="http://www.w3.org/2000/svg" xmlns:xlink="http://www.w3.org/1999/xlink" width="101" height="101"><defs/><g><rect fill="black" stroke="none" x="0" y="0" width="101" height="101"/><g/><path fill="none" stroke="rgb(0,255,0)" paint-order="fill stroke markers" d=" M -33.130464317328425 38.07731635795448 L -21.833282858088452 83.46271636754452" stroke-miterlimit="10" stroke-width="4" stroke-dasharray=""/><path fill="none" stroke="rgb(128,128,128)" paint-order="fill stroke markers" d=" M -35.07124302712978 38.560408481241325 L -23.774061567889806 83.94580849083135" stroke-opacity="255" stroke-miterlimit="10" stroke-width="2" stroke-dasharray=""/><path fill="none" stroke="rgb(128,128,128)" paint-order="fill stroke markers" d=" M 22.900841953532023 14.542515627778632 L 32.50909478461564 85.46057223815772" stroke-miterlimit="10" stroke-width="4" stroke-opacity="0.6711409395973155" stroke-dasharray=""/><path fill="none" stroke="rgb(255,255,255)" paint-order="fill stroke markers" d=" M 25.72307534906046 50.27005847116354 L 29.686861389087206 49.733029394772814" stroke-miterlimit="10" stroke-dasharray=""/><path fill="rgb(255,0,0)" stroke="none" paint-order="stroke fill markers" d=" M 22.229555608043622 9.587783077745197 L 28.52686084905386 18.825961832323667 L 18.617395748986986 20.16853452330047"/><path fill="rgb(255,0,0)" stroke="none" paint-order="stroke fill markers" d=" M 33.18038113010404 90.41530478819116 L 36.79254098916068 79.83455334263589 L 26.883075889093803 81.17712603361268"/><path fill="none" stroke="rgb(255,255,128)" paint-order="fill stroke markers" d=" M -33.86351271891267 43.41235525574471 L 24.832755452040693 28.801877164390277" stroke-miterlimit="10" stroke-dasharray=""/><path fill="none" stroke="rgb(255,255,128)" paint-order="fill stroke markers" d=" M -31.448052102478464 53.11624880475148 L 26.183387011470508 38.77082438875317" stroke-miterlimit="10" stroke-dasharray=""/><path fill="none" stroke="rgb(255,255,128)" paint-order="fill stroke markers" d=" M -29.032591486044247 62.82014235375825 L 27.53401857090032 48.739771613116076" stroke-miterlimit="10" stroke-dasharray=""/><path fill="none" stroke="rgb(255,255,128)" paint-order="fill stroke markers" d=" M -26.617130869610037 72.52403590276502 L 28.884650130330133 58.70871883747898" stroke-miterlimit="10" stroke-dasharray=""/><path fill="none" stroke="rgb(255,255,128)" paint-order="fill stroke markers" d=" M -24.20167025317582 82.22792945177179 L 30.235281689759947 68.67766606184189" stroke-miterlimit="10" stroke-dasharray=""/><path fill="none" stroke="rgb(255,255,128)" paint-order="fill stroke markers" d=" M 24.832755452040693 28.801877164390277 L 2276.2959538244113 441.4207304813167" stroke-miterlimit="10" stroke-dasharray=""/><path fill="none" stroke="rgb(255,255,128)" paint-order="fill stroke markers" d=" M 26.183387011470508 38.77082438875317 L 2326.247836426005 7.264413373220851" stroke-miterlimit="10" stroke-dasharray=""/><path fill="none" stroke="rgb(255,255,128)" paint-order="fill stroke markers" d=" M 27.53401857090032 48.739771613116076 L 2284.3150534412403 -451.6930664689262" stroke-miterlimit="10" stroke-dasharray=""/><path fill="none" stroke="rgb(255,255,128)" paint-order="fill stroke markers" d=" M 28.884650130330133 58.70871883747898 L 2153.6437281557264 -880.095483455669" stroke-miterlimit="10" stroke-dasharray=""/><path fill="none" stroke="rgb(255,255,128)" paint-order="fill stroke markers" d=" M 30.235281689759947 68.67766606184189 L 1964.9146295136275 -1237.34199758776" stroke-miterlimit="10" stroke-dasharray=""/><path fill="none" stroke="rgb(0,255,0)" paint-order="fill stroke markers" d=" M -33.130464317328425 38.07731635795448 L -21.833282858088452 83.46271636754452" stroke-miterlimit="10" stroke-width="4" stroke-dasharray=""/><path fill="none" stroke="rgb(128,128,128)" paint-order="fill stroke markers" d=" M -35.07124302712978 38.560408481241325 L -23.774061567889806 83.94580849083135" stroke-opacity="255" stroke-miterlimit="10" stroke-width="2" stroke-dasharray=""/><path fill="none" stroke="rgb(128,128,128)" paint-order="fill stroke markers" d=" M 22.900841953532023 14.542515627778632 L 32.50909478461564 85.46057223815772" stroke-miterlimit="10" stroke-width="4" stroke-opacity="0.6711409395973155" stroke-dasharray=""/><path fill="none" stroke="rgb(255,255,255)" paint-order="fill stroke markers" d=" M 25.72307534906046 50.27005847116354 L 29.686861389087206 49.733029394772814" stroke-miterlimit="10" stroke-dasharray=""/><path fill="rgb(255,0,0)" stroke="none" paint-order="stroke fill markers" d=" M 22.229555608043622 9.587783077745197 L 28.52686084905386 18.825961832323667 L 18.617395748986986 20.16853452330047"/><path fill="rgb(255,0,0)" stroke="none" paint-order="stroke fill markers" d=" M 33.18038113010404 90.41530478819116 L 36.79254098916068 79.83455334263589 L 26.883075889093803 81.17712603361268"/></g></svg>

<svg xmlns="http://www.w3.org/2000/svg" width="101" height="101"><path d="M0 0h101v101H0z"/><path fill="none" stroke="#0F0" paint-order="fill stroke markers" d="m-33.13 38.077 11.297 45.386" stroke-miterlimit="10" stroke-width="4"/><path fill="none" stroke="gray" paint-order="fill stroke markers" d="m-35.071 38.56 11.297 45.386" stroke-opacity="255" stroke-miterlimit="10" stroke-width="2"/><path fill="none" stroke="gray" paint-order="fill stroke markers" d="m22.9 14.543 9.61 70.918" stroke-miterlimit="10" stroke-width="4" stroke-opacity=".671"/><path fill="none" stroke="#FFF" paint-order="fill stroke markers" d="m25.723 50.27 3.964-.537" stroke-miterlimit="10"/><path fill="red" paint-order="stroke fill markers" d="m22.23 9.588 6.297 9.238-9.91 1.343M33.18 90.415l3.613-10.58-9.91 1.342"/><path fill="none" stroke="#FFFF80" paint-order="fill stroke markers" d="m-33.864 43.412 58.697-14.61M-31.448 53.116l57.631-14.345M-29.033 62.82l56.567-14.08M-26.617 72.524l55.502-13.815M-24.202 82.228l54.437-13.55M24.833 28.802 2276.296 441.42M26.183 38.77 2326.248 7.265M27.534 48.74l2256.781-500.433M28.885 58.709l2124.759-938.804M30.235 68.678l1934.68-1306.02" stroke-miterlimit="10"/><path fill="none" stroke="#0F0" paint-order="fill stroke markers" d="m-33.13 38.077 11.297 45.386" stroke-miterlimit="10" stroke-width="4"/><path fill="none" stroke="gray" paint-order="fill stroke markers" d="m-35.071 38.56 11.297 45.386" stroke-opacity="255" stroke-miterlimit="10" stroke-width="2"/><path fill="none" stroke="gray" paint-order="fill stroke markers" d="m22.9 14.543 9.61 70.918" stroke-miterlimit="10" stroke-width="4" stroke-opacity=".671"/><path fill="none" stroke="#FFF" paint-order="fill stroke markers" d="m25.723 50.27 3.964-.537" stroke-miterlimit="10"/><path fill="red" paint-order="stroke fill markers" d="m22.23 9.588 6.297 9.238-9.91 1.343M33.18 90.415l3.613-10.58-9.91 1.342"/></svg>
